X:1
T:Adeste Fideles
T:J. Reading
T:Fredrick Oakeley
%%score 1 2 3 4
L:1/8
Q:1/4=92
M:4/4
K:A
V:1 treble nm="Soprano" snm="S."
V:2 treble nm="Alto" snm="A."
V:3 treble-8 nm="Tenor" snm="T"
V:4 bass nm="Bass" snm="B."
V:1
"^Moderato""^Andante"!mf! A2 |!<(! A4 (E2 A2)!<)! |!>(! (B4 !breath!E4)!>)! | (c2 B2) (c2 d2) | %4
w: A-|des- te fi-|de- les|lae- ti tri- um-|
w: En-|gre- ge re-|lic- to|hu- mi- les ad|
!>(! c4 !breath!B2!>)!!mp! A2 | A4 G2 F2 | G2 A2 !breath!B2 c2 | (G4 F3) E | E6 z2 |!f! e4 d2 c2 | %10
w: phan- tes ve-|ni- te ve-|ni- i- te in|be- eth- le-|hem|na- tum vi-|
w: cu- nas vo-|ca- ti pas-|to- o- res ad|pro- 0- pe-|rant|Et nos o-|
 d4 !breath!c4 | B2 c2 A2 B2 |!>(! G4 !breath!E2!>)!!p! A2 | A2 G2 A2 B2 | A4 !breath!E2!mf! c2 | %15
w: de- te|re- gem an- ge-|lo- rum ve-|ni- te a- do-|re- mus ve-|
w: va- ti|gra- du fes- ti-|ne- mus *|||
 c2 B2 c2 d2 | c4 !breath!B2!f! c2 | d2 c2 B2 A2 | G4 A2 d2 | c4 B3 A | A6 z2 :| %21
w: ni- te a- do-|re- mus ve-|ni- te a- do-|re- mu- us|Do- o- mi-|num|
w: ||||||
V:2
!mf! E2 |!<(! E4 E2 E2!<)! |!>(! E4 !breath!E4!>)! | E2 E2 (E2 F2) | %4
w: A-|des- te fi-|de- les|lae- ti tri- um-|
w: En-|gre- ge re-|lic- to|hu- mi- les ad|
!>(! E4 !breath!E2!>)!!mp!!mp! C2 | C2 ^D2 E2 D2 | E4 !breath!E2 E2 | E4 ^D3 E | E6 z2 | %9
w: phan- tes ve-|ni- i- te ve-|ni- te in|Be- eth- le-|hem|
w: cu- nas vo-|ca- ti pas- to-|o- res ad|pro- 0- pe-|rant|
!f! E4 (FG A2) | (A2 G2) A4 | E2 E2 F2 F2 |!>(! E4 !breath!E2!p! E2!>)! | E2 E2 E2 E2 | %14
w: na- tu- um vi-|de- e- te|re- gem an- ge-|lo- rum ve-|ni- te a- do-|
w: |||||
 E4 E2!mf! E2 | E2 E2 E2 E2 | E4 !breath!E2!f! A2 | G2 A2 E2 E^D | E4 E2 F2 | E4 E3 C | C6 z2 :| %21
w: re- mus ve-|ni- te a- do-|re- mus ve-|ni- te a- do- o-|re- mu- us|Do- o- mi-|num|
w: |||||||
V:3
!mf! c2 |!<(! c4 c2 c2!<)! |!>(! B4 !breath!B4!>)! | (A2 B2) A2 A2 |!>(! A4 !breath!G2!>)!!mp! A2 | %5
w: A-|des- te fi-|de- les|lae- ti tri- um-|phan- tes ve-|
w: En-|gre- ge re-|lic- to|hu- mi- les ad|cu- nas vo-|
 A4 B2 B2 | B2 A2 !breath!G2 F2 | (B4 A3) G | G6 z2 |!f! c4 d2 e2 | d4 e4 | e2 A2 c2 d2 | %12
w: ni- te ve-|ni- i- te in|be- eth- le-|hem|na- tum vi-|de- te|re- gem an- ge-|
w: ca- ti pas-|to- o- res ad|pro- 0- pe-|rant|Et nos o-|va- ti|gra- du fes- ti-|
!>(! B4 !breath!G2!p! c2!>)! | c2 B2 c2 d2 | c4 c2!mf! A2 | A2 G2 A2 B2 | A4 !breath!G2!f! e2 | %17
w: lo- rum ve-|ni- te a- do-|re- mus ve-|ni- te a- do-|re- mus ve-|
w: ne- mus *|||||
 e2 e2 B2 B2 | B4 A4 | A4 G3 A | A6 z2 :| %21
w: ni- te a- do-|re mus|Do- o- mi-|num-|
w: ||||
V:4
!mf! A,2 |!<(! A,4 (C2 A,2)!<)! |!>(! G,4 !breath!G,4!>)! | (A,2 G,2) (A,2 D,2) | %4
w: A-|des- te fi-|de- les|lae- ti tri- um-|
w: En-|gre- ge re-|lic- to|hu- mi- les ad|
!>(! E,4 (!breath!E,2!>)!!mp! F,2) | F,4 E,2 B,,2 | (E,2 C,2) !breath!G,,2 A,,2 | (B,,4 B,,3) E, | %8
w: phan- tes ve-|ni- te ve-|ni- i- te in|be- eth- le-|
w: cu- nas vo-|ca- ti pas-|to- o- res ad|pro- 0- pe-|
 E,6 z2 |!f! C4 (B,2 A,2) | B,4 A,4 | G,2 A,2 (F,2 D,2) |!>(! E,4 !breath!E,2!>)! z2 | z8 | z8 | %15
w: hem|na- tum vi-|de- te|re- gem an- ge-|lo- rum|||
w: rant|Et nos o-|va- ti|gra- du fes- ti-|ne- mus|||
 z8 | z4 z2!f! A,2 | B,2 A,2 G,2 F,2 | E,2 D,2 C,2 D,2 | E,4 E,3 A,, | A,,6 z2 :| %21
w: |ve-|ni- te a- do-|re- e- mu- us|Do- o- mi-|num|
w: ||||||

